X: 23
T: Funsdalingen
O: Funsdalen, Hrjedalen
Z:Transcribed to abcby Jon Magnusson 080411
R: Polska
M: 3/4
L: 1/8
K: A
(3 E2A2c2 c>e|(3 efg a>e c>c|(3 cBc d>B G>B|(3:2:4 B2AcA2 E2|
(3 E2A2c2 c>e|(3 efg a>e c>c|(3 cBc d>B G>B|A2 A4:|
A2 f2 f>f|fe e4|A2 d2 d>d|(3 dcB c4|
A2 f2 f>f|fg e3 a/2|(3:2:4 g2fed2 B>G|A2 A4:|
